packages/icons/src/assets/tag-disabled.svg

<svg xmlns="http://www.w3.org/2000/svg" width="24" height="24"><g clip-path="url(#a)"><path d="M6.068 15.068 3.143 12.54a.744.744 0 0 1-.015-1.065l5.7-4.927c.405-.353.93-.548 1.47-.548h4.837l1.5-1.5h-6.338c-.9 0-1.77.322-2.452.915L2.13 10.358l-.03.022A2.24 2.24 0 0 0 1.41 12c0 .615.248 1.193.72 1.65l2.873 2.483zM20.865 4.5l1.193-1.192L21 2.25 18.75 4.5 17.25 6 7.2 16.05l-1.065 1.065-2.76 2.76 1.058 1.058 2.842-2.843.57.495a3.74 3.74 0 0 0 2.452.915H22.5v-15zM21 18H10.298c-.54 0-1.065-.195-1.47-.547l-.488-.428L19.365 6H21z"/><path d="M6.75 12c0 .645.412 1.193.982 1.402l1.92-1.92A1.5 1.5 0 0 0 8.25 10.5c-.825 0-1.5.675-1.5 1.5"/></g><defs><clipPath id="a"><path d="M0 0h24v24H0z"/></clipPath></defs></svg>

<svg width="100%" height="100%" viewBox="0 0 24 24" version="1.1" xmlns="http://www.w3.org/2000/svg" xmlns:xlink="http://www.w3.org/1999/xlink" xml:space="preserve" style="fill-rule:evenodd;clip-rule:evenodd;stroke-linejoin:round;stroke-miterlimit:2;"><path d="M6.068,15.068L3.143,12.54C2.995,12.4 2.911,12.204 2.911,12C2.911,11.803 2.989,11.614 3.128,11.475L8.828,6.548C9.233,6.195 9.758,6 10.298,6L15.135,6L16.635,4.5L10.297,4.5C9.397,4.5 8.527,4.822 7.845,5.415L2.13,10.358L2.1,10.38C1.659,10.803 1.409,11.389 1.41,12C1.41,12.615 1.658,13.193 2.13,13.65L5.003,16.133L6.068,15.068ZM20.865,4.5L22.058,3.308L21,2.25L3.375,19.875L4.433,20.933L7.275,18.09L7.845,18.585C8.525,19.175 9.396,19.5 10.297,19.5L22.5,19.5L22.5,4.5L20.865,4.5ZM21,18L10.298,18C9.758,18 9.233,17.805 8.828,17.453L8.34,17.025L19.365,6L21,6L21,18Z" style="fill-rule:nonzero;"/><path d="M6.75,12C6.75,12.645 7.162,13.193 7.732,13.402L9.652,11.482C9.436,10.895 8.875,10.502 8.25,10.5C7.425,10.5 6.75,11.175 6.75,12" style="fill-rule:nonzero;"/></svg>
